X:1
T:Title
%%score 1 ( 2 3 ) ( 4 5 )
L:1/8
Q:1/4=130
M:4/4
K:C
V:1 treble nm="Trumpet, Soprano"
V:2 treble nm="Bright Piano, Bass"
V:3 treble 
V:4 bass nm="Choir Pad, Staff-1"
V:5 bass 
V:1
 E2 E2 ED C2 | G2 G4 G2 | A2 A2 G2 F2 | G6 z2 | E2 E2 ED C2 | G2 G4 G2 | ^F2 F2 G2 A2 | G6 z G | %8
w: By~Scott~Werdebaugh * * * *||||||||
 E2 E2 ED C2 | G2 G4 G2 | c3 c B2 c2 | A6 z A | c2 c2 B2 A2 | A2 G4 E2 | G2 G2 F2 D2 | C4 G4 | %16
w: ||||||||
 E2 E2 ED C2 | G6 GG | A4 G2 F2 | G6 z2 | E2 E2 ED C2 | G6 GG | ^F4 G2 A2 | G6 z2 | E2 E2 ED C2 | %25
w: |||||||||
 G6 z2 | E3 E F2 G2 | A6 z A | A2 A2 G2 F2 | G4 E4 | G2 G2 FE D2 | C8 | E2 E2 ED C2 | G2 G4 G2 | %34
w: |||||||||
 A2 A2 G2 F2 | G6 z2 | E2 E2 ED C2 | G2 G4 G2 | ^F2 F2 G2 A2 | G6 z G | E2 E2 ED C2 | G2 G4 G2 | %42
w: ||||||||
 c3 c B2 c2 | A6 z A | c2 c2 B2 A2 | A2 G4 E2 | G2 G2 F2 D2 | C4 G4 | E2 E2 ED C2 | G6 GG | %50
w: ||||||||
 A4 G2 F2 | G6 z2 | E2 E2 ED C2 | G6 GG | ^F4 G2 A2 | G6 z2 | E2 E2 ED C2 | G6 z2 | E3 E F2 G2 | %59
w: |||||||||
 A6 z A | A2 A2 G2 F2 | G4 E4 | G2 G2 FE D2 | C8 | E2 E2 ED C2 | G2 G4 G2 | A2 A2 G2 F2 | G6 z2 | %68
w: |||||||||
 E2 E2 ED C2 | G2 G4 G2 | ^F2 F2 G2 A2 | G6 z G | E2 E2 ED C2 | G2 G4 G2 | c3 c B2 c2 | A6 z A | %76
w: ||||||||
 c2 c2 B2 A2 | A2 G4 E2 | G2 G2 F2 D2 | C4 G4 | E2 E2 ED C2 | G6 GG | A4 G2 F2 | G6 z2 | %84
w: ||||||||
 E2 E2 ED C2 | G6 GG | ^F4 G2 A2 | G6 z2 | E2 E2 ED C2 | G6 z2 | E3 E F2 G2 | A6 z A | %92
w: ||||||||
 A2 A2 G2 F2 | G4 E4 | G2 G2 FE D2 | C8 | E2 E2 ED C2 | G2 G4 G2 | A2 A2 G2 F2 | G6 z2 | %100
w: ||||||||
 E2 E2 ED C2 | G2 G4 G2 | ^F2 F2 G2 A2 | G6 z G | E2 E2 ED C2 | G2 G4 G2 | c3 c B2 c2 | A6 z A | %108
w: ||||||||
 c2 c2 B2 A2 | A2 G4 E2 | G2 G2 F2 D2 | C4 G4 | E2 E2 ED C2 | G6 GG | A4 G2 F2 | G6 z2 | %116
w: ||||||||
 E2 E2 ED C2 | G6 GG | ^F4 G2 A2 | G6 z2 | E2 E2 ED C2 | G6 z2 | E3 E F2 G2 | A6 z A | %124
w: ||||||||
 A2 A2 G2 F2 | G4 E4 | G2 G2 FE D2 |[Q:1/4=135] G2 G2 FE D2 | G3 G GA B2 |[Q:1/4=120] c8 |] %130
w: ||||||
V:2
 [CE]2 [CE]2 [CE][B,D] C2 | [EG]2 [EG]4 [EG]2 | [FA]2 [FA]2 [DG]2 [DF]2 | [EG]8 | %4
 [CE]2 [CE]2 [CE][B,D] C2 | [EG]2 [EG]4 [EG]2 | [D^F]2 [DF]2 [DG]2 [FA]2 | [DG]6- [DG][DG] | %8
 [CE]2 [CE]2 [CE][B,D] C2 | [EG]2 [EG]4 [EG]2 | [Ec]3 [Fc] [GB]2 [Ec]2 | [FA]6- [FA][FA] | %12
 [Ac]2 [Ac]2 [GB]2 [FA]2 | A-[DA] [EG]4 [CE]2 | [DG]2 [DG]2 [DF]2 [B,D]2 | C4 [B,G]4 | %16
 [CE]2 [CE]2 [CE][B,D] C2 | [EG]6 [EG][EG] | [FA]4 [DG]2 [DF]2 | [EG]8 | [CE]2 [CE]2 [CE][B,D] C2 | %21
 [EG]6 [EG][EG] | [D^F]4 [DG]2 [DA]2 | [DG]8 | [CE]2 [CE]2 [CE][B,D] C2 | [EG]8 | %26
 [CE]3 [CE] [DF]2 [EG]2 | [FA]6- [FA][FA] | [FA]2 [FA]2 [DG]2 [DF]2 | [EG]4 [CE]4 | %30
 [DG]2 [DG]2 [DF][CE] [B,D]2 | [G,C]8 | [CE]2 [CE]2 [CE][B,D] C2 | [EG]2 [EG]4 [EG]2 | %34
 [FA]2 [FA]2 [DG]2 [DF]2 | [EG]8 | [CE]2 [CE]2 [CE][B,D] C2 | [EG]2 [EG]4 [EG]2 | %38
 [D^F]2 [DF]2 [DG]2 [FA]2 | [DG]6- [DG][DG] | [CE]2 [CE]2 [CE][B,D] C2 | [EG]2 [EG]4 [EG]2 | %42
 [Ec]3 [Fc] [GB]2 [Ec]2 | [FA]6- [FA][FA] | [Ac]2 [Ac]2 [GB]2 [FA]2 | A-[DA] [EG]4 [CE]2 | %46
 [DG]2 [DG]2 [DF]2 [B,D]2 | C4 [B,G]4 | [CE]2 [CE]2 [CE][B,D] C2 | [EG]6 [EG][EG] | %50
 [FA]4 [DG]2 [DF]2 | [EG]8 | [CE]2 [CE]2 [CE][B,D] C2 | [EG]6 [EG][EG] | [D^F]4 [DG]2 [DA]2 | %55
 [DG]8 | [CE]2 [CE]2 [CE][B,D] C2 | [EG]8 | [CE]3 [CE] [DF]2 [EG]2 | [FA]6- [FA][FA] | %60
 [FA]2 [FA]2 [DG]2 [DF]2 | [EG]4 [CE]4 | [DG]2 [DG]2 [DF][CE] [B,D]2 | [G,C]8 | %64
 [CE]2 [CE]2 [CE][B,D] C2 | [EG]2 [EG]4 [EG]2 | [FA]2 [FA]2 [DG]2 [DF]2 | [EG]8 | %68
 [CE]2 [CE]2 [CE][B,D] C2 | [EG]2 [EG]4 [EG]2 | [D^F]2 [DF]2 [DG]2 [FA]2 | [DG]6- [DG][DG] | %72
 [CE]2 [CE]2 [CE][B,D] C2 | [EG]2 [EG]4 [EG]2 | [Ec]3 [Fc] [GB]2 [Ec]2 | [FA]6- [FA][FA] | %76
 [Ac]2 [Ac]2 [GB]2 [FA]2 | A-[DA] [EG]4 [CE]2 | [DG]2 [DG]2 [DF]2 [B,D]2 | C4 [B,G]4 | %80
 [CE]2 [CE]2 [CE][B,D] C2 | [EG]6 [EG][EG] | [FA]4 [DG]2 [DF]2 | [EG]8 | [CE]2 [CE]2 [CE][B,D] C2 | %85
 [EG]6 [EG][EG] | [D^F]4 [DG]2 [DA]2 | [DG]8 | [CE]2 [CE]2 [CE][B,D] C2 | [EG]8 | %90
 [CE]3 [CE] [DF]2 [EG]2 | [FA]6- [FA][FA] | [FA]2 [FA]2 [DG]2 [DF]2 | [EG]4 [CE]4 | %94
 [DG]2 [DG]2 [DF][CE] [B,D]2 | [G,C]8 | [CE]2 [CE]2 [CE][B,D] C2 | [EG]2 [EG]4 [EG]2 | %98
 [FA]2 [FA]2 [DG]2 [DF]2 | [EG]8 | [CE]2 [CE]2 [CE][B,D] C2 | [EG]2 [EG]4 [EG]2 | %102
 [D^F]2 [DF]2 [DG]2 [FA]2 | [DG]6- [DG][DG] | [CE]2 [CE]2 [CE][B,D] C2 | [EG]2 [EG]4 [EG]2 | %106
 [Ec]3 [Fc] [GB]2 [Ec]2 | [FA]6- [FA][FA] | [Ac]2 [Ac]2 [GB]2 [FA]2 | A-[DA] [EG]4 [CE]2 | %110
 [DG]2 [DG]2 [DF]2 [B,D]2 | C4 [B,G]4 | [CE]2 [CE]2 [CE][B,D] C2 | [EG]6 [EG][EG] | %114
 [FA]4 [DG]2 [DF]2 | [EG]8 | [CE]2 [CE]2 [CE][B,D] C2 | [EG]6 [EG][EG] | [D^F]4 [DG]2 [DA]2 | %119
 [DG]8 | [CE]2 [CE]2 [CE][B,D] C2 | [EG]8 | [CE]3 [CE] [DF]2 [EG]2 | [FA]6- [FA][FA] | %124
 [FA]2 [FA]2 [DG]2 [DF]2 | [EG]4 [CE]4 | [DG]2 [DG]2 [DF][CE] [B,D]2 | %127
 [DG]2 [DG]2 [DF][CE] [B,D]2 | [DG]3 [DG] [DG][FA] [FB]2 | [EGc]8 |] %130
V:3
 x8 | x8 | x8 | x8 | x8 | x8 | x8 | x8 | x8 | x8 | x8 | x8 | x8 | .C2 z2 z4 | x8 | x8 | x8 | x8 | %18
 x8 | x8 | x8 | x8 | x8 | x8 | x8 | x8 | x8 | x8 | x8 | x8 | x8 | x8 | x8 | x8 | x8 | x8 | x8 | %37
 x8 | x8 | x8 | x8 | x8 | x8 | x8 | x8 | .C2 z2 z4 | x8 | x8 | x8 | x8 | x8 | x8 | x8 | x8 | x8 | %55
 x8 | x8 | x8 | x8 | x8 | x8 | x8 | x8 | x8 | x8 | x8 | x8 | x8 | x8 | x8 | x8 | x8 | x8 | x8 | %74
 x8 | x8 | x8 | .C2 z2 z4 | x8 | x8 | x8 | x8 | x8 | x8 | x8 | x8 | x8 | x8 | x8 | x8 | x8 | x8 | %92
 x8 | x8 | x8 | x8 | x8 | x8 | x8 | x8 | x8 | x8 | x8 | x8 | x8 | x8 | x8 | x8 | x8 | .C2 z2 z4 | %110
 x8 | x8 | x8 | x8 | x8 | x8 | x8 | x8 | x8 | x8 | x8 | x8 | x8 | x8 | x8 | x8 | x8 | x8 | x8 | %129
 x8 |] %130
V:4
 [C,G,]4 [C,G,][D,G,] [E,G,]2 | [C,G,]2 [C,G,]4 [E,C]2 | [F,C]4 [G,B,]4 | [C,G,]8 | %4
 [C,G,]4 [C,G,][D,G,] [E,G,]2 | [C,G,]2 [C,G,]4 [E,C]2 | [D,A,]4 [G,B,]2 [D,A,]2 | B,8 | %8
 [C,G,]4 [C,G,][D,G,] [E,G,]2 | [C,G,]2 [C,G,]4 [E,C]2 | [G,C]3 [F,A,] [D,G,]2 [C,G,]2 | %11
 [C,F,]6- [C,F,][C,F,] | [F,A,]4 [D,G,]2 [F,C]2 | [F,A,]2 [C,C]4 [C,G,]2 | %14
 [G,B,]4 [G,B,]2 [F,B,]2 | [E,G,]4 [D,G,]4 | [C,G,]4 [C,G,][D,G,] [E,G,]2 | [C,G,]6 [C,G,]2 | %18
 [C,F,]4 [B,,G,]4 | [C,G,]8 | [C,G,]4 [C,G,][D,G,] [E,G,]2 | [C,G,]6 [C,E,][E,G,] | %22
 [D,A,]4 [G,B,]2 [^F,A,]2 | B,8 | [C,G,]4 [C,G,][D,G,] [E,G,]2 | [C,G,]8 | [C,G,]4 [D,G,]2 [E,C]2 | %27
 [F,C]6- [F,C][F,C] | [F,C]4 [G,B,]4 | C4 z4 | [G,B,]2 [D,B,]2 [D,G,][C,G,] [G,,G,]2 | [C,E,]8 | %32
 [C,G,]4 [C,G,][D,G,] [E,G,]2 | [C,G,]2 [C,G,]4 [E,C]2 | [F,C]4 [G,B,]4 | [C,G,]8 | %36
 [C,G,]4 [C,G,][D,G,] [E,G,]2 | [C,G,]2 [C,G,]4 [E,C]2 | [D,A,]4 [G,B,]2 [D,A,]2 | B,8 | %40
 [C,G,]4 [C,G,][D,G,] [E,G,]2 | [C,G,]2 [C,G,]4 [E,C]2 | [G,C]3 [F,A,] [D,G,]2 [C,G,]2 | %43
 [C,F,]6- [C,F,][C,F,] | [F,A,]4 [D,G,]2 [F,C]2 | [F,A,]2 [C,C]4 [C,G,]2 | %46
 [G,B,]4 [G,B,]2 [F,B,]2 | [E,G,]4 [D,G,]4 | [C,G,]4 [C,G,][D,G,] [E,G,]2 | [C,G,]6 [C,G,]2 | %50
 [C,F,]4 [B,,G,]4 | [C,G,]8 | [C,G,]4 [C,G,][D,G,] [E,G,]2 | [C,G,]6 [C,E,][E,G,] | %54
 [D,A,]4 [G,B,]2 [^F,A,]2 | B,8 | [C,G,]4 [C,G,][D,G,] [E,G,]2 | [C,G,]8 | [C,G,]4 [D,G,]2 [E,C]2 | %59
 [F,C]6- [F,C][F,C] | [F,C]4 [G,B,]4 | C4 z4 | [G,B,]2 [D,B,]2 [D,G,][C,G,] [G,,G,]2 | [C,E,]8 | %64
 [C,G,]4 [C,G,][D,G,] [E,G,]2 | [C,G,]2 [C,G,]4 [E,C]2 | [F,C]4 [G,B,]4 | [C,G,]8 | %68
 [C,G,]4 [C,G,][D,G,] [E,G,]2 | [C,G,]2 [C,G,]4 [E,C]2 | [D,A,]4 [G,B,]2 [D,A,]2 | B,8 | %72
 [C,G,]4 [C,G,][D,G,] [E,G,]2 | [C,G,]2 [C,G,]4 [E,C]2 | [G,C]3 [F,A,] [D,G,]2 [C,G,]2 | %75
 [C,F,]6- [C,F,][C,F,] | [F,A,]4 [D,G,]2 [F,C]2 | [F,A,]2 [C,C]4 [C,G,]2 | %78
 [G,B,]4 [G,B,]2 [F,B,]2 | [E,G,]4 [D,G,]4 | [C,G,]4 [C,G,][D,G,] [E,G,]2 | [C,G,]6 [C,G,]2 | %82
 [C,F,]4 [B,,G,]4 | [C,G,]8 | [C,G,]4 [C,G,][D,G,] [E,G,]2 | [C,G,]6 [C,E,][E,G,] | %86
 [D,A,]4 [G,B,]2 [^F,A,]2 | B,8 | [C,G,]4 [C,G,][D,G,] [E,G,]2 | [C,G,]8 | [C,G,]4 [D,G,]2 [E,C]2 | %91
 [F,C]6- [F,C][F,C] | [F,C]4 [G,B,]4 | C4 z4 | [G,B,]2 [D,B,]2 [D,G,][C,G,] [G,,G,]2 | [C,E,]8 | %96
 [C,G,]4 [C,G,][D,G,] [E,G,]2 | [C,G,]2 [C,G,]4 [E,C]2 | [F,C]4 [G,B,]4 | [C,G,]8 | %100
 [C,G,]4 [C,G,][D,G,] [E,G,]2 | [C,G,]2 [C,G,]4 [E,C]2 | [D,A,]4 [G,B,]2 [D,A,]2 | B,8 | %104
 [C,G,]4 [C,G,][D,G,] [E,G,]2 | [C,G,]2 [C,G,]4 [E,C]2 | [G,C]3 [F,A,] [D,G,]2 [C,G,]2 | %107
 [C,F,]6- [C,F,][C,F,] | [F,A,]4 [D,G,]2 [F,C]2 | [F,A,]2 [C,C]4 [C,G,]2 | %110
 [G,B,]4 [G,B,]2 [F,B,]2 | [E,G,]4 [D,G,]4 | [C,G,]4 [C,G,][D,G,] [E,G,]2 | [C,G,]6 [C,G,]2 | %114
 [C,F,]4 [B,,G,]4 | [C,G,]8 | [C,G,]4 [C,G,][D,G,] [E,G,]2 | [C,G,]6 [C,E,][E,G,] | %118
 [D,A,]4 [G,B,]2 [^F,A,]2 | B,8 | [C,G,]4 [C,G,][D,G,] [E,G,]2 | [C,G,]8 | [C,G,]4 [D,G,]2 [E,C]2 | %123
 [F,C]6- [F,C][F,C] | [F,C]4 [G,B,]4 | C4 z4 | [G,B,]2 [D,B,]2 [D,G,][C,G,] [G,,G,]2 | %127
 [B,,G,]4 [D,G,][C,G,] [G,,G,]2 | [B,,G,]4 [D,G,][C,G,] [G,,G,]2 | [C,E,G,C]8 |] %130
V:5
 x8 | x8 | x8 | x8 | x8 | x8 | x8 | G,2 F,2 E,2 D,[D,B,] | x8 | x8 | x8 | x8 | x8 | x8 | x8 | x8 | %16
 x8 | x8 | x8 | x8 | x8 | x8 | x8 | G,2 F,2 E,2 D,2 | x8 | x8 | x8 | x8 | x8 | E,2 D,2 [C,G,]4 | %30
 x8 | x8 | x8 | x8 | x8 | x8 | x8 | x8 | x8 | G,2 F,2 E,2 D,[D,B,] | x8 | x8 | x8 | x8 | x8 | x8 | %46
 x8 | x8 | x8 | x8 | x8 | x8 | x8 | x8 | x8 | G,2 F,2 E,2 D,2 | x8 | x8 | x8 | x8 | x8 | %61
 E,2 D,2 [C,G,]4 | x8 | x8 | x8 | x8 | x8 | x8 | x8 | x8 | x8 | G,2 F,2 E,2 D,[D,B,] | x8 | x8 | %74
 x8 | x8 | x8 | x8 | x8 | x8 | x8 | x8 | x8 | x8 | x8 | x8 | x8 | G,2 F,2 E,2 D,2 | x8 | x8 | x8 | %91
 x8 | x8 | E,2 D,2 [C,G,]4 | x8 | x8 | x8 | x8 | x8 | x8 | x8 | x8 | x8 | G,2 F,2 E,2 D,[D,B,] | %104
 x8 | x8 | x8 | x8 | x8 | x8 | x8 | x8 | x8 | x8 | x8 | x8 | x8 | x8 | x8 | G,2 F,2 E,2 D,2 | x8 | %121
 x8 | x8 | x8 | x8 | E,2 D,2 [C,G,]4 | x8 | x8 | x8 | x8 |] %130

